heart.svg

<svg height="595" viewBox="0 0 683 595" width="683" xmlns="http://www.w3.org/2000/svg"><path d="m582.892 24.209c-27.613-15.395-59.242-24.209-93.113-24.209-59.722 0-113.061 27.442-148.349 70.61-35.524-43.168-88.867-70.61-148.706-70.61-33.635 0-65.264 8.814-92.995 24.209-59.485 33.271-99.729 97.201-99.729 170.761 0 21.005 3.426 41.153 9.562 59.995 33.044 150.361 331.868 339.842 331.868 339.842s298.467-189.481 331.632-339.842c6.13-18.842 9.56-38.99 9.56-59.995 0-73.56-40.245-137.371-99.73-170.761" fill="#db2b30" fill-rule="evenodd"/></svg>

<?xml version="1.0" encoding="UTF-8"?>
<svg width="683px" height="595px" viewBox="0 0 683 595" version="1.1" xmlns="http://www.w3.org/2000/svg" xmlns:xlink="http://www.w3.org/1999/xlink">
    <title>Fill 2</title>
    <g id="Page-1" stroke="none" stroke-width="1" fill="none" fill-rule="evenodd">
        <g id="Artboard" fill="#DB2B30">
            <path d="M582.892,24.209 C555.279,8.814 523.65,0 489.779,0 C430.057,0 376.718,27.442 341.43,70.61 C305.906,27.442 252.563,0 192.724,0 C159.089,0 127.46,8.814 99.729,24.209 C40.244,57.48 0,121.41 0,194.97 C0,215.975 3.426,236.123 9.562,254.965 C42.606,405.326 341.43,594.807 341.43,594.807 C341.43,594.807 639.897,405.326 673.062,254.965 C679.192,236.123 682.622,215.975 682.622,194.97 C682.622,121.41 642.377,57.599 582.892,24.209" id="Fill-2"></path>
        </g>
    </g>
</svg>
